ion/today-sharp.svg

<svg viewBox="0 0 512 512" xmlns="http://www.w3.org/2000/svg"><g><path d="M32 456v0c0 13.25 10.74 24 24 24h400v0c13.25 0 24-10.75 24-24V176H32Zm80-238.86h-.001c0-5.05 4.09-9.14 9.14-9.14h109.72v0c5.04 0 9.14 4.09 9.14 9.14v109.72 0c0 5.04-4.1 9.14-9.14 9.14H121.13v0c-5.05 0-9.14-4.1-9.14-9.14Z"/><path d="M456 64h-55.92V32h-48v32H159.92V32h-48v32H56v0c-13.15-.12-23.89 10.45-24 23.59 -.01.05-.01.11-.01.17v56.23h448V87.76v0c-.02-13.15-10.69-23.79-23.83-23.78 -.06 0-.12 0-.18 0Z"/></g></svg>

<svg xmlns="http://www.w3.org/2000/svg" viewBox="0 0 512 512"><path d="M32,456a24,24,0,0,0,24,24H456a24,24,0,0,0,24-24V176H32Zm80-238.86a9.14,9.14,0,0,1,9.14-9.14H230.86a9.14,9.14,0,0,1,9.14,9.14V326.86a9.14,9.14,0,0,1-9.14,9.14H121.14a9.14,9.14,0,0,1-9.14-9.14Z"/><path d="M456,64H400.08V32h-48V64H159.92V32h-48V64H56A23.8,23.8,0,0,0,32,87.77V144H480V87.77A23.8,23.8,0,0,0,456,64Z"/></svg>
